static/img/cam-server/ico-header-guide.svg

<svg width="20" height="20" viewBox="0 0 20 20" fill="none" xmlns="http://www.w3.org/2000/svg">
<rect x="0.499875" y="0.499875" width="17" height="16.9993" rx="8.49964" transform="matrix(1 -0.000250226 -0.000250226 1 1.00238 1.00273)" stroke="#757575"/>
<path d="M9.82306 5.00329C10.7078 4.95409 11.5783 5.24354 12.2566 5.81379C12.5315 6.04124 12.7539 6.32587 12.9078 6.64776C13.0618 6.96975 13.1433 7.32188 13.1477 7.67875C13.1417 8.07899 13.0302 8.47069 12.8241 8.81385C12.4159 9.34753 11.9535 9.83831 11.4451 10.2776C11.3062 10.43 10.9508 10.7303 10.8881 11.0095C10.7836 11.4753 10.7836 11.5971 10.7836 11.9979H9.0095V11.5802C9.00103 11.1343 9.10931 10.6913 9.27842 10.2787C9.54978 9.83304 9.88345 9.44692 10.3079 9.14356C10.7941 8.71106 11.0909 8.44018 11.1991 8.33204C11.2895 8.22039 11.3572 8.09208 11.3981 7.95436C11.4389 7.81658 11.4529 7.6716 11.4379 7.52869C11.4229 7.38581 11.3798 7.24667 11.3114 7.12038C11.2428 6.99408 11.1495 6.88218 11.0378 6.79169C10.8864 6.65056 10.7077 6.54159 10.5131 6.47117C10.3185 6.40079 10.1114 6.3697 9.90472 6.38134C9.4898 6.37512 9.08667 6.51988 8.76962 6.78761C8.46834 7.11067 8.24603 7.49921 8.12041 7.92271L6.49738 7.76041C6.52305 7.38781 6.62229 7.02367 6.78932 6.68962C6.95634 6.35557 7.18853 6.05788 7.4712 5.81379C8.12254 5.25273 8.96433 4.96296 9.82306 5.00329Z" fill="#757575"/>
<path d="M9.14386 14.8514C9.23763 14.9452 9.36477 14.9979 9.49738 14.9979H10.4974C10.63 14.9979 10.7571 14.9452 10.8509 14.8514C10.9447 14.7577 10.9974 14.6305 10.9974 14.4979V13.4979C10.9974 13.3653 10.9447 13.2382 10.8509 13.1444C10.7571 13.0506 10.63 12.9979 10.4974 12.9979H9.49738C9.36477 12.9979 9.23763 13.0506 9.14386 13.1444C9.05009 13.2382 8.99738 13.3653 8.99738 13.4979V14.4979C8.99738 14.6305 9.05009 14.7577 9.14386 14.8514Z" fill="#757575"/>
</svg>

<svg xmlns="http://www.w3.org/2000/svg" width="20" height="20" fill="none" viewBox="0 0 20 20"><rect width="17" height="16.999" x=".5" y=".5" stroke="#757575" rx="8.5" transform="matrix(1 -.00025 -.00025 1 1.002 1.003)"/><path fill="#757575" d="M9.823 5.003c.885-.049 1.755.24 2.434.81a2.46 2.46 0 0 1 .89 1.866 2.27 2.27 0 0 1-.323 1.135 10 10 0 0 1-1.379 1.464c-.139.152-.494.452-.557.731-.104.466-.104.588-.104.989H9.009v-.418c-.008-.446.1-.889.27-1.301a3.8 3.8 0 0 1 1.029-1.135q.729-.65.891-.812a1.096 1.096 0 0 0-.161-1.54 1.54 1.54 0 0 0-1.133-.41 1.72 1.72 0 0 0-1.135.406 2.86 2.86 0 0 0-.65 1.135L6.497 7.76a2.83 2.83 0 0 1 .974-1.946 3.36 3.36 0 0 1 2.352-.81M9.144 14.851a.5.5 0 0 0 .353.147h1a.5.5 0 0 0 .5-.5v-1a.5.5 0 0 0-.5-.5h-1a.5.5 0 0 0-.5.5v1a.5.5 0 0 0 .147.353"/></svg>
